X: 305746
M: 2/4
L: 1/16
K: G	% Actually starts in Em
cd |\
e2B2 B2Ac | BAGF E2D2 | G3A GABc | (d4 B2)cd |\
e2B2 B2Ac | BAGF E2FG | A2F2 D2EF | G4- G2 H:|
e2B2 B2Ac | BAGF E2FG | A2F2 D2EF | G4- "^D.C."G2 :|


